X: 3239
T: MICKIE MURPHY
%R: jig
B: James Kerr "Merry Melodies" v.3 p.27 #239
Z: 2016 John Chambers <jc:trillian.mit.edu>
M: 6/8
L: 1/8
K: D
|:\
vd2vf ecA | BdB AFD |\
d2f ecA | B2c d3 |\
d2f ecA | BdB AFD |\
GAB Adc | d3- d2z ::\
dfa afd | ced cBA |\
[1 dfa afd | f3 a3 :|\
[2 GAB Adc | d3- d2 |]

%%sep 1 1 500
%%sep 1 1 500

